X: 1
P: Dr. Angus and Emily MacDonald's Trip to San Francisco
C: by Alasdair Fraser, "The Driven Bow" 1988
C: arr Terry Traub, 6-12-2007
M: 6/8
L: 1/8
R: Jig
K: A
|: c/B/|"A"AEF A2 c|"A"efa cBA|"D"fec "A"e<ac|"E"BcB AFE|"A"AEF A2 c|"D"efa "A"cBA|"D"fec "A"e<ac|"E"BAF "A"A2 :|
a|"A"a>aa c'ba|"D"f<af "A"ecA|"D"fec "A"e<ac|"E"BcB AFE|"A"a>aa c'ba|"D"f<af "A"ecA|"D"fec "A"e<ac|"E"BAF "A"A2||
a|"A"a>aa c'ba|"D"f<af "A"ecA|"D"fec "A"e<ac|"E"BcB AFE|"A"AEF A2 c|"D"efa "A"cBA|"D"fec "A"e<ac|"E"BAF "A"A2 |]
